_uploads/pizza-cursor.svg

<svg height="44" viewBox="0 0 29 44" width="29" xmlns="http://www.w3.org/2000/svg"><g fill="none" fill-rule="evenodd" transform="matrix(.9612617 .27563736 -.27563736 .9612617 .81595 -.382632)"><path d="m16.9639489 25.4052234c-1.3603404 1.9027447-2.6695106 3.7354255-3.9778936 5.5681064-.2164893.3022979-.4384893.5998723-.6447447.9076808-.3204042.4802128-.7455106.7384256-1.332.6376596-.5542127-.0952553-.8439149-.4699787-1.01395741-.9824681-1.28634042-3.8779149-2.57740425-7.7550425-3.87004255-11.631383-2.00272341-6.0081702-4.00544681-12.01555314-6.01446809-18.02136165-.18106383-.54319149-.16925532-1.036.25742554-1.45402128.4140851-.40542553.8974468-.41329787 1.42489361-.23853191 9.8829362 3.29929787 19.7666596 6.5930851 29.6519574 9.88451064.5124894.1708298.8919362.4565957.9879788 1.009234.1015532.5825532-.1574468 1.0013617-.6305745 1.3359362-2.0672766 1.466617-4.1258936 2.9442553-6.1884468 4.4179575-.0724255.0511702-.1432766.1062765-.2432553.1802765.107851.114149.2038936.2235745.3070213.3267022 3.5590851 3.5606596 7.1197446 7.1197447 10.6788297 10.6804042.7462979.7455107.7494468 1.3737234.0086596 2.1137234-2.1105745 2.1113617-4.2203617 4.2227234-6.3317234 6.3317234-.7045745.7053617-1.3548298.7045745-2.0601915-.0007872-3.5606596-3.5590851-7.1197447-7.1189574-10.6788298-10.679617-.107851-.1086383-.1999574-.2322341-.3306383-.3857447" fill="#ff0700"/><path d="m28.528417 11.7152234c-8.4674893-2.82223404-16.8664893-5.62242553-25.34499998-8.44780851 2.82931915 8.48795741 5.62872341 16.88538301 8.44465958 25.33082981.121234-.161383.2062553-.2700213.2865532-.383383 1.2359574-1.7295532 2.4695532-3.4598936 3.7062979-5.1886596.6675744-.9336595 1.4154468-.9919149 2.2325957-.1747659 3.6244255 3.6236383 7.2472766 7.2480638 10.8717021 10.8709149.0889575.0897446.1834256.1747659.2290851.2180638 1.6429575-1.6421702 3.269383-3.2678085 4.9139149-4.9115532-1.332-1.3296383-2.6931276-2.6868298-4.0511064-4.0448085-2.3837446-2.381383-4.7674893-4.7619787-7.1465106-7.1480851-.6746596-.6746596-.6140425-1.4862979.1385532-2.0334255.4463617-.322766.8958723-.6400213 1.3430213-.9604256 1.4374893-1.0265532 2.8734042-2.0531064 4.376234-3.1268936" fill="#fff"/></g></svg>

<?xml version="1.0" encoding="UTF-8"?>
<svg width="29px" height="44px" viewBox="0 0 29 44" version="1.1" xmlns="http://www.w3.org/2000/svg" xmlns:xlink="http://www.w3.org/1999/xlink">
    <!-- Generator: Sketch 56.3 (81716) - https://sketch.com -->
    <title>Group 6</title>
    <desc>Created with Sketch.</desc>
    <g id="Page-1" stroke="none" stroke-width="1" fill="none" fill-rule="evenodd">
        <g id="Desktop" transform="translate(-766.000000, -2398.000000)">
            <g id="Group-6" transform="translate(779.500000, 2420.500000) rotate(16.000000) translate(-779.500000, -2420.500000) translate(761.000000, 2402.000000)">
                <path d="M16.9639489,25.4052234 C15.6036085,27.3079681 14.2944383,29.1406489 12.9860553,30.9733298 C12.769566,31.2756277 12.547566,31.5732021 12.3413106,31.8810106 C12.0209064,32.3612234 11.5958,32.6194362 11.0093106,32.5186702 C10.4550979,32.4234149 10.1653957,32.0486915 9.99535319,31.5362021 C8.70901277,27.6582872 7.41794894,23.7811596 6.12531064,19.9048191 C4.12258723,13.8966489 2.11986383,7.88926596 0.110842553,1.88345745 C-0.0702212766,1.34026596 -0.058412766,0.847457447 0.368268085,0.42943617 C0.782353191,0.0240106383 1.26571489,0.0161382979 1.7931617,0.190904255 C11.6760979,3.49020213 21.5598213,6.78398936 31.4451191,10.0754149 C31.9576085,10.2462447 32.3370553,10.5320106 32.4330979,11.0846489 C32.5346511,11.6672021 32.2756511,12.0860106 31.8025234,12.4205851 C29.7352468,13.8872021 27.6766298,15.3648404 25.6140766,16.8385426 C25.5416511,16.8897128 25.4708,16.9448191 25.3708213,17.0188191 C25.4786723,17.1329681 25.5747149,17.2423936 25.6778426,17.3455213 C29.2369277,20.9061809 32.7975872,24.465266 36.3566723,28.0259255 C37.1029702,28.7714362 37.1061191,29.3996489 36.3653319,30.1396489 C34.2547574,32.2510106 32.1449702,34.3623723 30.0336085,36.4713723 C29.329034,37.176734 28.6787787,37.1759468 27.973417,36.4705851 C24.4127574,32.9115 20.8536723,29.3516277 17.2945872,25.7909681 C17.1867362,25.6823298 17.0946298,25.558734 16.9639489,25.4052234" id="Path" fill="#FF0700"></path>
                <path d="M28.528417,11.7152234 C20.0609277,8.89298936 11.6619277,6.09279787 3.18341702,3.26741489 C6.01273617,11.7553723 8.81214043,20.1527979 11.6280766,28.5982447 C11.7493106,28.4368617 11.8343319,28.3282234 11.9146298,28.2148617 C13.1505872,26.4853085 14.384183,24.7549681 15.6209277,23.0262021 C16.2885021,22.0925426 17.0363745,22.0342872 17.8535234,22.8514362 C21.4779489,26.4750745 25.1008,30.0995 28.7252255,33.7223511 C28.814183,33.8120957 28.9086511,33.897117 28.9543106,33.9404149 C30.5972681,32.2982447 32.2236936,30.6726064 33.8682255,29.0288617 C32.5362255,27.6992234 31.1750979,26.3420319 29.8171191,24.9840532 C27.4333745,22.6026702 25.0496298,20.2220745 22.6706085,17.8359681 C21.9959489,17.1613085 22.056566,16.3496702 22.8091617,15.8025426 C23.2555234,15.4797766 23.705034,15.1625213 24.152183,14.842117 C25.5896723,13.8155638 27.0255872,12.7890106 28.528417,11.7152234" id="Path" fill="#FFFFFF"></path>
            </g>
        </g>
    </g>
</svg>
